svgs/sharp-light/mobile-button.svg

<svg xmlns="http://www.w3.org/2000/svg" viewBox="0 0 384 512"><!--! Font Awesome Pro 6.6.0 by @fontawesome - https://fontawesome.com License - https://fontawesome.com/license (Commercial License) Copyright 2024 Fonticons, Inc. --><path d="M64 32l0 448 256 0 0-448L64 32zM32 0L64 0 320 0l32 0 0 32 0 448 0 32-32 0L64 512l-32 0 0-32L32 32 32 0zM192 392a24 24 0 1 1 0 48 24 24 0 1 1 0-48z"/></svg>

<svg xmlns="http://www.w3.org/2000/svg" viewBox="0 0 384 512"><!--! Font Awesome Pro 6.4.2 by @fontawesome - https://fontawesome.com License - https://fontawesome.com/license (Commercial License) Copyright 2023 Fonticons, Inc. --><path d="M64 32V480H320V32H64zM32 0H64 320h32V32 480v32H320 64 32V480 32 0zM192 392a24 24 0 1 1 0 48 24 24 0 1 1 0-48z"/></svg>
